!!!ONB: MCCC : IRS0031_01 : Extracted Monophonic Melody
!!!COM: Schumann, Robert
!!!OPR: Fantasy
!!!OMV: 1
!!!SCT: Op.17
!!!ODT: 1836///
**kern
*staff1
*clefG2
*k[]
*a:
*M4/4
4.aa
8aa
=3
2aa
2gg
=4
2ff
2ee
=5
2ee
2dd[
=6
2dd]
4.dd
8dd
=7
2.dd[
8dd]
8dd
=8
2.ee[
8ee]
8ee
=9
1ff[
=10
2ff]
4.bb
8bb
=11
2bb
2aa
=12
2gg
2ff
=13
2ff
2ee[
=14
2ee]
4.ee
8gg
=15
2gg
2dd
=16
2dd
2cc
=17
2b
4ee
4gg
=18
4gg
4dd
4dd
4cc
=19
4b
4r
2r
=20
4aa
4gg
4ff
8r
8ee
=21
4ee
2dd
4dd
=22
4.dd
16.ee
32ff
28ee
28ff
28ee
28ff
28ee
28ff
28ee
24ff
24ee
24ff
96r
96ee
24ff
32ee-
32ee
=23
2ff
4ccc
8.ccc
32ccc
32ccc
=24
28r
28dd
28cc
28dd
28cc
28dd
28cc
4aa
4ff
4r
=25
4cc
4b
2r
=26
28r
28d
28c
28d
28c
28d
28c
4a
4f
4r
=27
4c
4B
2r
=28
4c
4B
4r
8.g#
16gg#
=29
4gg#
4gg
4.ff[
16ff]
16ee-
=30
4ee-
4dd
4r
8r
16r
16dd
=31
4.dd[
16dd]
16ee-
4.ee-[
16ee-]
16ff
=32
4ff
2b-[
8.b-]
16g#
=33
1g
=34
1g
=35
1cc
=36
1cc
=37
1b-
=38
1dd
=39
1gg
=40
1gg
=41
4ff
4aa
4gg#
4aa
=42
4ddd
4ccc
4.bb-
8aa
=43
4aa
4gg
4ff#
8gg
32gg[
32gg]
32gg
32aa
=44
1gg[
=45
4gg]
4gg
4ff#
8.gg[
32gg]
32gg
=46
4bb-
4gg
4.ee
8dd
=47
2dd
4cc#
4r
=48
1r
=49
4dd
4a
4a
4g
=50
2g
2f
=51
4d
4A
4A
4G
=52
2G
2F
=53
12GG
12C
12BB-
12F
12E-
12F#
12G
12c
12B-
12f
12e-
12f#
=54
12g
12f
12d
16B-
16b-
8b-
8b-
16d
16b-
12e-
12b-
12f
=55
12G
12c
12B-
12f
12e-
12f#
12g
12cc
12b-
12ff
12ee-
12ff#
=56
12gg
12ff
12dd
16b
16bb
8bb
8bb
16dd
16bb
12ee
12bb
12ff
=57
12aa
12ff
12ee
16dd
16ddd
8ddd
8ddd
16ff
16ddd
12gg
12ddd
12aa
=58
12ddd
12bb-
12aa
12gg
12ggg
12ddd
12ccc
12bb-
12ddd
12bb-
12aa
12gg
=59
12ddd
12bb-
12aa
12gg
12ggg
12ddd
12ccc
12bb-
12ddd
12bb-
12aa
12gg
=60
12ddd
12gg#
12gg
12ff
12fff
12ddd
12ccc
12bb
12ddd
12gg#
12gg
12ff
=61
4ee
4cc
4cc
8cc
8cc
=62
4ff
4ee
4.dd
8cc
=63
4cc
4b-
4a
8b-
32b-[
32b-]
32b-
32dd
=64
1b-[
=65
4b-]
4b-
4a
8.b-[
32b-]
32b-
=66
4dd
4b-
4a
4g
=67
4c
4c
[8e
8e_
4e_
=68
2e]
4cc
4r
=69
4ff
4cc
4cc
4b-
=70
4a
8a
8a
8a
8g
8g
8g
=71
8A
8cc
8ff
8cc
12cc
12b-
12ee[
16ee]
16dd[
8dd]
=72
8a[
8a]
8a
8a
16a
16a
8a
8a
8g
=73
4r
4f[
8f]
8f
8f
8f
=74
8d
8f
2.e-
=75
1e-
=76
4cc#[
2cc#]
8r
16r
16dd
=77
4dd
4r
2r
=78
1r
=79
2r
8r
8dd
8gg
8ff
=80
2ff
2ee[
=81
2ee]
4ff
4r
=82
4r
4D
4D
8C#
8A
=83
4A
2.d
=84
4r
4D
4D
8C#
8A
=85
4D
4d
4d
4g
=86
4g
4cc
4cc
8d
16r
16ddd
=87
4ddd
4G
4G
8F#
8d
=88
4G
4g
4g
4cc
=89
4cc
4ff
4ff
8g
16r
16gg
=90
4gg
4b-
4ee-
4ee-
=91
4ee-
4ee-
4dd
8.cc
16ff
=92
4ff
4a
4dd
4dd
=93
4dd
4dd
4cc
8.b-
16ee-
=94
4ee-
4ee-
4g
4cc
=95
4cc
4cc
4cc
4b-
=96
4b-
4a
4a
4g[
=97
4g]
4r
2aa[
=98
4aa]
4gg
4ff
8r
8ee
=99
4ee
2dd
4dd
=100
4.dd
16.ee
32ff
28ee
28ff
28ee
28ff
28ee
28ff
28ee
24ff
24ee
24ff
96r
96ee
24ff
32ee-
32ee
=101
2ff
4ccc
4ccc[
=102
4ccc]
4aa
4ff
4r
=103
4cc
4b
2r
=104
28r
28d
28c
28d
28c
28d
28c
4a
4f
4r
=105
4c
4B
4r
8d
8e
=106
8d
8e
8d
8f
8e
8f
8e
8a
=107
8.g
16g
4g
8r
8a
8g
8a
=108
8f#
8a
8f#
8b
8a
8b
8a
8cc
=109
8.b
16b
4b
8r
8e
8d
8e
=110
8d
8e
8d
8f
8e
8f
8e
8a
=111
8.g
16g
4g
8r
8a
8g
8a
=112
8f#
8a
8f#
8b
8a
8b
8a
8cc
=113
8.b
16b
4b
8r
8ee-
8dd
8ee-
=114
8dd
8ee-
8cc#
8ff
8ee-
8ff
8ee-
8gg#
=115
8.gg#
16gg#
2gg#
8r
8gg#
=116
8.gg#
16gg#
2gg#
8r
8gg#
=117
4gg#
8r
8gg#
4gg#
4gg#
=118
4gg#
4gg#
4.gg#
16.gg#
32aa
=119
4aa
4gg
4ff
8r
8ee
=120
4ee
4dd
4r
8r
16r
16dd
=121
4.dd[
16dd]
16ee
4.ee[
16ee]
16ff
=122
2.ff
8r
8ccc[
=123
4ccc]
4aa
4ff
4r
=124
4cc
4b
2r
=125
28r
28d
28c
28d
28c
28d
28c
4a
4f
4r
=126
4c
4B
4r
8r
16r
16d
=127
2c
2B[
=128
1B]
=129
32F
32G
16F
32G
32F
16G
24G
24r
24G
32r
16G
32G
4G#
16.G
32G
32r
16.G
=130
32G
32F
32G
32F
48r
48G
24F
24G
28F
28G
28F
28G
28F
28G
28F
28G
28F
28G
28F
28G
28F
28G
24F
24G
24F
32G
32F
32G
32F
=131
24G
24F
24G
32F
32G
32F
32G
32G
16.F
8GG
32F
32G
32F
32G
48r
48F
24G
24F
28G
28F
28G
28F
28G
28F
28G
=132
32F
32G
32F
32G[
16G]
32G
32F
28G
28F
28G
28F
28G
28F
28G
24F
24G
24F
32G
32F
32G
32F
16G
32F
32G
32F
32G
16F
=133
32G
32F
32G
32F
48r
48G
24F
24G
28F
28G
28F
28G
28F
28G
28F
28G
28F
28G
28F
28G
28F
28G
28F
28G
28F
28G
28F
14G
=134
*M2/4
4r
8d
8g
=135
4g
8g
8b-
=136
4b-
8b-
8b-
=137
4b-
8a
8e
=138
4f#
8g[
8g]
=139
4cc
8cc
8ee-
=140
4ee-
8ee-
8ee-
=141
4ee-
8dd
8b
=142
4cc
8cc
8ee-
=143
4gg
8ff
8dd
=144
4ee-
8dd
8cc
=145
4cc
4c
=146
4C
8g
8cc
=147
4cc
8cc
8ee-
=148
4ee-
8ee-
8ee-
=149
4ee-
8dd
8a
=150
8cc
8b-
8r
8g
=151
4g
8g
8b-
=152
4b-
8b-
8b-
=153
8b-[
8b-]
8a
8a
=154
4a
8g
8gg[
=155
16gg]
16gg
16g
16e-
16g
16G
16cc
16c
=156
16cc
16g
16c
16G
16c
16C
16ee-
16e-
=157
16ee-
16g#
16d
16G#
16d
16D
16dd
16d
=158
16dd
16g
16d
16G
16c
16C
16cc
16c
=159
16cc
16f
16d
16F
16c
16C
16cc
16c
=160
16cc[
16cc]
16d
16F#
16c
16D
16F#
16F
=161
16A
16G#
16c
16B
16e-
16d
16f#
16f
=162
16a
16a
16cc
16ee-
4ccc
=163
4ccc[
16ccc]
16cc
16dd
16ee-
=164
8ee-
8g
8b-
8g#
=165
8g#
8g
4f
=166
8cc#
8e
8g
8f
=167
8e-
8d
16r
16B-
16e-
16d
=168
16c
16g
16f
16e-
48e-
48f
48e-
16d
16c
16B-
=169
16B-
16e-
16B
16d
16r
16c
16B-
16G#
=170
8G
8G[
16G]
16G#
16G
16F
=171
16E-
16F
16E-
16D
16C
16D
8c
=172
16B
16A
16g
16B
16e-
16d
16cc
16f
=173
16b
16a
16b-
16b
16g
16a
16gg
16b
=174
16ee-
16dd
16ccc
16ff
16bb
16aa
16ggg
16bb
=175
16eee-
16ddd
16eee-
16eee
16bb
16ddd
16cccc#
16eee
=176
16ggg#
16eee-
16fff
16ccc
16ddd
16gg#
16bb
16ff
=177
16ccc
16dd
16gg
16b
16ee-
16g
16ccc
16gg
=178
16gg#
16ee-
16ff
16cc
16dd
16g#
16b
16f
=179
16cc
16d
16g
16B
16e-
16G
16gg#
16ee-
=180
16ff
16cc
16dd
16g#
8b
8cc
=181
4cc
8cc
8dd
=182
4ee-
8dd
8b
=183
4cc
8cc
8ee-
=184
4gg
4ff
=185
4ee-
4dd
=186
4cc
8cc
8cc
=187
4cc
8cc
8cc
=188
4cc#
4gg#
=189
4r
4gg#
=190
4r
4ccc
=191
4r
4gg#
=192
4r
4ff#
=193
4r
4ff#
=194
4r
4ff#
=195
4r
4ee-
=196
4r
16cc
16b
16cc
16gg#
=197
4d
16cc
16b
16cc
16gg#
=198
4g#
16cc
16b
16cc
16gg
=199
4f#
16cc
16b
16cc
16ff#
=200
4r
16cc
16b
16cc
16ff#
=201
4r
16cc
16b
16cc
32ff#[
32ff#]
=202
2g[
=203
16g]
16dd
24r
24gg
24dd
24r
24gg
24cc#
16r
32r
32d
=204
8g
32g
32a
16b
16cc
16dd
32g
32ee-
16ff
=205
24g
24gg
24dd
24r
24gg
24cc
24r
24gg
24b
16r
16gg
=206
8ccc
24r
24dd
24ee
24r
24ff
24gg
24r
24gg#
24bb-
=207
24r
24ccc
24gg
24r
24ccc
24gg
24r
24ccc
24ff#
16r
32r
32g
=208
8cc
32cc
32dd
16ee
16ff
16gg
32cc
32gg#
16bb-
=209
24cc
24ccc
24gg
24r
24ccc
24gg
24r
24ccc
24ff#
24r
24ccc
24ff
=210
24r
24ccc
24ee
24r
24ccc
24ee
24r
24ddd
24ff
24r
24eee
24gg
=211
16r
16fff
16ff
16g#
16cc[
16cc]
16gg#[
16gg#]
=212
16gg#
16dd
16g#
16d
16gg[
16gg]
16dd[
16dd]
=213
16ee-
16cc
16e-
16G
16g[
16g]
16ee-[
16ee-]
=214
16ee-
16a
16e-
16A
16dd[
16dd]
16g#[
16g#]
=215
16r
16cc
16c
16G#
[16c
16c]
16cc[
16cc]
=216
16cc
16b-
16c
16B-
[16c
16c]
16cc[
16cc]
=217
16cc
16g#
16c
16G#
[16c
16c]
16cc[
16cc]
=218
16cc
16g
16c
16G
[16c
16c]
16cc[
16cc]
=219
16r
32r
32ee-
8r
4gg#
=220
4gg#[
16gg#]
16ggg#
16fff
16eee-
=221
16bb
16gg#
16ff
16ee-
16b
16g#
16f
16e-
=222
16B
16e-
16f
16g#
16b
16dd
16gg#
16gg#
=223
2gg#[
=224
2gg#]
=225
4gg#
4gg
=226
4ee-
4cc
=227
2g
=228
8.cc
16c
8.ee-
16e-
=229
8.gg#
16g#
8.gg
16g
=230
8.ee-
16e-
8.cc
16c
=231
2g
=232
2g[
=233
2g]
=234
*M4/4
2r
4r
8.g#
16gg#
=235
4gg#
4gg
4.ff[
16ff]
16ee-
=236
4ee-
4dd
4r
8r
16r
16dd
=237
4.dd[
16dd]
16ee-
4.ee-[
16ee-]
16ff
=238
4ff
2b-[
8.b-]
16g#
=239
1g
=240
1g
=241
1cc
=242
1cc
=243
4b
4r
2r
=244
4ccc
4bb-
4.gg#
8gg
=245
4gg
4ff
4ee
8ff
32ff[
32ff]
32ff
32gg
=246
1ff[
=247
4ff]
4ff
4ee
4ff
=248
4gg#
4ff
4.dd
8cc
=249
2cc
4b
4r
=250
1r
=251
4cc
4g
4g
4f
=252
2f
2e-
=253
4c
4G
4G
4F
=254
2F
2E-
=255
12FF
12BB-
12GG#
12E-
12C#
12E
12F
12B-
12G#
12e-
12c#
12e
=256
12f
12e-
12c
16G#
16g#
8g#
8g#
16c
16g#
12c#
12g#
12e-
=257
12F
12B-
12G#
12e-
12c#
12e
12f
12b-
12g#
12ee-
12cc#
12ee
=258
12ff
12ee-
12cc
16a
16aa
8aa
8aa
16cc
16aa
12dd
12aa
12ee-
=259
12gg
12ee-
12dd
16cc
16ccc
8ccc
8ccc
16ee-
16ccc
12ff
12ccc
12gg
=260
12ccc
12gg#
12gg
12ff
12fff
12ccc
12bb-
12gg#
12ccc
12gg#
12gg
12ff
=261
12ccc
12gg#
12gg
12ff
12fff
12ccc
12bb-
12gg#
12ccc
12gg#
12gg
12ff
=262
12ccc
12ff#
12ff
12ee-
12eee-
12ccc
12bb-
12aa
12ccc
12ff#
12ff
12ee-
=263
4dd
4b-
4b-
8b-
8b-
=264
4ee-
4dd
4cc
4b-
=265
4b-
4g#
4f##
8g#
32g#[
32g#]
32g#
32cc
=266
1g#[
=267
4g#]
4g#
4f##
8.g#[
32g#]
32g#
=268
4cc
4g#
4g
4f
=269
4B-
4B-
8d
8d
4d[
=270
2d]
4b-
4r
=271
4ee-
4b-
4b-
4g#
=272
4g
8g
8g
8g
8f
8f
8f
=273
8G
8b-
8ee-
8b-
12b-
12g#
12dd[
16dd]
16cc[
8cc]
=274
8g[
8g]
8g
8g
16g
16g
8g
8g
8f
=275
4r
4e-[
8e-]
8e-
8e-
8e-
=276
8c
8e-
2.c#
=277
1c#
=278
4b[
2b]
8r
16r
16cc
=279
4cc
4r
2r
=280
1r
=281
2r
8r
8cc
8ff
8ee-
=282
2ee-
2dd[
=283
2dd]
4ee-
4r
=284
4r
4C
4C
8BB
8G
=285
4G
2.c
=286
4r
4C
4C
8BB
8G
=287
4C
[4c
4c]
[4f
=288
4f]
[4b-
4b-_
8b-]
16r
16ccc
=289
4ccc
4r
4e-
4g#
=290
4d
4g#
4g
8.f
16dd
=291
4dd
4r
4d
4g
=292
4c
[4g
4g]
8.e-
16ff
=293
4ff
4g#
4c
[4f
=294
4f_
4f_
4f_
4f_
=295
4f_
4f_
4f_
4f]
=296
4B-
4r
2r
=297
4aa
4gg
4ff
8r
8ee
=298
4ee
2dd
4dd
=299
4.dd
16.ee
32ff
28ee
28ff
28ee
28ff
28ee
28ff
28ee
24ff
24ee
24ff
96r
96ee
24ff
32ee-
32ee
=300
2ff
4ccc
8.ccc
32ccc
32ccc
=301
28r
28dd
28cc
28dd
28cc
28dd
28cc
4aa
4ff
4r
=302
16r
16f
16d
16f
2b
16r
16e
16c
16e
=303
16c
16d
16c
16d
2a
16r
16d
16c
16d
=304
16c
16d
16c
16d
2g
16r
16d
16c
16d
=305
16c
16d
16c
16d
4g[
8g]
8a
8b
8cc
=306
4cc
4g
2g
=307
4f
4e
2c
=308
4cc
4g
4f
8dd
8cc
=309
4cc
4r
8r
8c
8d
8e-
=310
8e
8d
4g
8r
8a
8b
8cc
=311
4cc
4g
4dd
8dd
8cc
=312
8cc
8cc
8b
8a
8g
8f
8e
8e-
=313
4d
4a
4b
4cc
=314
2cc
2g
=315
8B
8f
2bb
4bb
=316
1bb[
=317
6bb]
6ggg
6ggg
6ggg
6ggg
6ggg
=318
4ccc
4r
2c
=319
1c
==
*-
